!!!OTL: Toot, Toot, Tootsie
!!!COM: Kahn, Gus
!!!COM: Erdman, Ernie
!!!COM: Dan Russo
!!!LAR: Frey, Hugo
!! "Toot, toot, tootsie" by Gus Kahn, Ernie Erdman and Dan Russo,
!! from "Barbershop Memories" compiled and arranged by Hugo Frey
!! copyright 1975 by EMI Music Publ. Ltd.; pp. 2-3; alla breve; in F major
!! NOTE:  The second ending is encoded.
**kern	**kern	**kern	**kern
*Ivox	*Ivox	*Ivox	*Ivox
*M2/2	*M2/2	*M2/2	*M2/2
*F:	*F:	*F:	*F:
=1	=1	=1	=1
4F	4r	4r	4r
4r	4A	4c	4f
4C	2F	2A	2d
4r	.	.	.
=2	=2	=2	=2
4r	4A	4c	4f
4FF	2c	2a	2d
4AA	.	.	.
4C	4A	4c	4f
=3	=3	=3	=3
2GG	{4F	2Bn	1d
.	4G}	.	.
4F	4A	4B	.
4F	4G	4B	.
=4	=4	=4	=4
4.D	4.A-	4.c	4.f
[8D	[8G	[8Bn	[8f
4D]	2G]	2B]	2f]
4GG	.	.	.
=5	=5	=5	=5
4C	4r	4r	4r
4r	4B-	4c	4e
4C	2c	2A	2e
4C	.	.	.
=6	=6	=6	=6
4r	4B-	4c	4e
4C	2c	2A	2e
4C	.	.	.
4C	4B-	4c	4e
=7	=7	=7	=7
4r	1A	1G	1c
4FF	.	.	.
4AA	.	.	.
4C	.	.	.
=8	=8	=8	=8
4D	1G	1B-	4d
4D-	.	.	4e-
4C	.	.	2en
4C	.	.	.
=9	=9	=9	=9
2FF	4r	4r	4r
.	4E	4A	4c
4C	4F	4A	4c
4C	4A	4c	4f
=10	=10	=10	=10
2F	2c	2A	2d
2F#	2c	2A	2d#
=11	=11	=11	=11
{2G	1c	1B-	{2e
2GG}	.	.	4f
.	.	.	4dn}
=12	=12	=12	=12
2.C	1E	1B-	1c
4GG	.	.	.
=13	=13	=13	=13
2.C	4r	4r	4r
.	4E	4B-	4c
.	4G	4B-	4e
4C	4B-	4G	4c
=14	=14	=14	=14
2GG	2d	2B-	2f
2C	2d	2g#	2ee
=15	=15	=15	=15
4F	4d	4A	4f
4F	4c	4A	4f
4F	4Bn	4G#	4e
4F	4G#	4Bn	4Bn
=16	=16	=16	=16
4F	4Gn	4B-	4d
4E	4G	4B-	4c
4D	4G	4B-	4d
4C	4G#	4c	4e
=17	=17	=17	=17
4F	4r	4r	4r
4r	4A	4c	4f
4C	2F	2A	2d
4r	.	.	.
=18	=18	=18	=18
4r	4A	4c	4f
4FF	2c	2A	2d
4AA	.	.	.
4C	4A	4c	4f
=19	=19	=19	=19
2GG	{4F	2Bn	1d
.	4G}	.	.
4F	4A	4B	.
4F	4G	4B	.
=20	=20	=20	=20
4.D	4.A-	4.c	4.f
[8D	[8G	[8Bn	[8f
4D]	2G]	2B]	2f]
4GG	.	.	.
=21	=21	=21	=21
4C	4r	4r	4r
4r	4B-	4c	4e
4C	2c	2A	2e
4C	.	.	.
=22	=22	=22	=22
4r	4B-	4c	4e
4C	2c	2A	2e
2C	.	.	.
.	4B-	4c	4e
=23	=23	=23	=23
4r	1A	1G	1c
4FF	.	.	.
4AA	.	.	.
4C	.	.	.
=24	=24	=24	=24
4F	1c	1A	1e-
4G	.	.	.
2F	.	.	.
=25	=25	=25	=25
4D	4B-	4A-	4f
4C#	4B-	4A-	4en
4Cn	4B-	4A	4e-
[4BB-	[4B-	[4A	[4d
=26	=26	=26	=26
4BB-]	4B-]	4A]	1d]
4F	4A-	4c	.
2BB-	2A	2B-	.
=27	=27	=27	=27
4D	4B-	4A-	4f
4C#	4B-	4A-	4en
4Cn	4B-	4A-	4e-
[4BB-	[4F	[4A	[4d
=28	=28	=28	=28
4BB-]	4F]	4A]	4d]
4r	4F	4F	4r
2r	4F	4F	2r
.	4F	4F	.
=29	=29	=29	=29
1r	4A	4c	1r
.	4G#	4Bn	.
.	4Gn	4B-	.
.	4F	4A	.
=30	=30	=30	=30
4C	4A	4c	2r
4D	4G#	4Bn	.
4E	4Gn	4B-	4r
4F	4F	4A	4f
=31	=31	=31	=31
4E-	4A	4c	4f
4D	4A-	4Bn	4f
4D-	4G	4B-	4f
[4C	[4F	[4A	[4c
=32	=32	=32	=32
4C]	4F]	4A]	4c]
4AA	4F	4A	4c#
4GG	4F	4B-	4d
4C	4G	4cn	4e
=33	=33	=33	=33
4F	4r	4r	4r
4r	4A	4c	4f
4C	2F	2A	2d
4r	.	.	.
=34	=34	=34	=34
4r	4A	4c	4f
4FF	2c	2A	2d
4AA	.	.	.
4C	4A	4c	4f
=35	=35	=35	=35
2GG	{4F	2bn	1d
.	4G}	.	.
4F	4A	4B	.
4F	4G	4B	.
=36	=36	=36	=36
4.D	4.A-	4.c	4.f
[8D	[8G	[8Bn	[8f
4D]	2G]	2B]	2f]
4GG	.	.	.
=37	=37	=37	=37
4C	4r	4r	4r
4r	4B-	4c	4e
4C	2c	2A	2e
4C	.	.	.
=38	=38	=38	=38
4r	4B-	4c	4e
4C	2c	2A	2e
4C	.	.	.
4C	4B-	4c	4e
=39	=39	=39	=39
2.F	2.A	2.c	2.f
4r	4F	4A	4c
=40	=40	=40	=40
2r	4F	4A-	4d-
.	4F#	4An	4dn
2C	4G	4B-	4e-
.	4G#	4Bn	4en
=41	=41	=41	=41
1Fn;	1A;	1c;	1f;
==	==	==	==
*-	*-	*-	*-
